X:5
T:Gloire  Dieu au plus haut des cieux
C:P et E. Daniel
M:4/4
K:Em
"Mim"B,B, "Cl"E2 DD GF|[M:3/4]E4 "Ass"B,2|[M:2/4]E2 FE|D2 DB,|(EG) FE|
w:Gloire  Dieu au plus haut des|cieux Et|paix sur la|ter-re aux|hom-*mes qu'il|
D2 E2|"Cho"B,2 DE|D2|B,D EF|E4|G2 FE|F4|"Ass"B,B, DE|D4|
w:ai-me.|Nous te lou-|ons,~nous|te b-nis-*|sons,|nous t'a-do-|rons.|Nous te glo-ri-|fions,|
B,D EF|E2 ED|EG FE|[M:3/4]D2 E2 "Cho"DD|[M:2/4]G2 FF|
w:nous te ren-dons|gr-ces pour|ton im-men-se|gloi-re. Sei-gneur|Dieu, Roi du|
E2 FE|DB, CD|B,2 "Ass"D2|G2 FF|EE FD|E4|"Cho"E2 F2|
w:ciel, Dieu le|P-re tout puis-|sant. Sei-|gneur fils u-|ni-que J-sus|Christ.|Sei-gneur|
G3 E|F2 G2|A3 A|B2 G2|F2 E2|"Ass"B,2 EE|E2 D2|
w:Dieu, A-|gneau de|Dieu, le|fils du|P-re|Toi qui en-|l-ves|
EG FE|D2 B,2|EE FD|E4|"Cho"B,2 EE|E2 D2|
w:le p-ch du|mon-de,|prends pi-ti de|nous.|Toi qui en-|l-ves|
EG FE|[M:3/4]D2 B,3B,|[M:2/4]EE DE|F2 F2|"Ass"B,B, DE|D2 B,B,|
w:le p-ch du|mon-de, re-|ois no-tre pri-|-re.|Toi qui es as-|sis  la|
(EG) FE|D2 B,2|EE FD|E4|"Cho"EE FG|A3 "Ass"E|
w:droi-*te du|p-re,|prends pi-ti de|nous.|Car toi seul es|saint Toi|
E2 FG|A3 A|AF GA|B2 GF|E3 E|EG FE|
w:seul es Sei-|gneur, Toi|seul es le trs|haut, J-sus|Christ, a-|vec le Saint Es-|
D2 "Ass"B,"et"B,|[M:3/4]"Cho"E2 DG FE|[M:2/4]D2 E2|(EG FD)|E4||
w:prit, dans la|gloi-re de Dieu le|p-re.|A-***|Men!|
